media/imagens/selo-garantia.svg

<svg width="257" height="330" viewBox="0 0 257 330" fill="none" xmlns="http://www.w3.org/2000/svg">
<path d="M57.7937 223.14H198.354V315.294C198.354 321.95 191.36 326.287 185.398 323.327L132.062 296.846C129.55 295.598 126.598 295.598 124.086 296.846L70.7498 323.327C64.7885 326.287 57.7937 321.95 57.7937 315.294V223.14Z" fill="url(#paint0_linear_1_234)"/>
<path fill-rule="evenodd" clip-rule="evenodd" d="M18.3095 103.54C21.7766 100.086 23.2074 95.0823 22.0905 90.3175L17.5523 70.9564C15.7709 63.3568 20.4952 55.7542 28.0977 53.9856L42.7862 50.5688C47.8755 49.3849 51.8945 45.4866 53.233 40.4357L57.0771 25.9305C59.0717 18.4044 66.7832 13.9143 74.313 15.8947L91.7859 20.4902C96.6316 21.7646 101.79 20.375 105.339 16.8388L118.111 4.11569C123.619 -1.37184 132.528 -1.3719 138.036 4.11553L152.266 18.2912C155.714 21.7257 160.687 23.1422 165.427 22.0396L185.031 17.4792C192.616 15.7149 200.196 20.4254 201.974 28.0069L205.397 42.6105C206.589 47.6987 210.496 51.7116 215.55 53.041L230.128 56.8752C237.678 58.8608 242.183 66.5973 240.183 74.1434L235.616 91.3754C234.325 96.2463 235.729 101.436 239.299 104.992L251.957 117.602C257.495 123.119 257.495 132.087 251.957 137.604L237.84 151.668C234.373 155.122 232.942 160.125 234.059 164.89L238.597 184.251C240.378 191.851 235.654 199.454 228.052 201.222L213.361 204.64C208.272 205.823 204.253 209.722 202.914 214.773L199.07 229.277C197.076 236.803 189.364 241.293 181.834 239.313L164.363 234.718C159.517 233.443 154.359 234.833 150.809 238.369L138.038 251.092C132.53 256.58 123.621 256.58 118.113 251.092L103.883 236.917C100.435 233.482 95.4616 232.066 90.7217 233.168L71.118 237.729C63.5336 239.493 55.9529 234.782 54.1758 227.201L50.7529 212.598C49.5602 207.51 45.6539 203.497 40.5997 202.167L26.0191 198.333C18.4693 196.347 13.9646 188.61 15.9644 181.064L20.5314 163.831C21.8223 158.96 20.4188 153.771 16.8488 150.214L4.19173 137.606C-1.3464 132.089 -1.34647 123.121 4.19157 117.604L18.3095 103.54ZM128.258 220.952C179.908 220.952 221.778 179.24 221.778 127.786C221.778 76.3325 179.908 34.6209 128.258 34.6209C76.6077 34.6209 34.7372 76.3325 34.7372 127.786C34.7372 179.24 76.6077 220.952 128.258 220.952Z" fill="url(#paint1_linear_1_234)"/>
<path d="M59.0871 152.401L70.367 122.628H54.1491V116.674H76.4184L78.0644 119.336L65.8163 152.401H59.0871ZM95.518 152.401V116.674H110.284C112.607 116.674 114.544 117.093 116.093 117.932C117.674 118.739 118.933 119.933 119.869 121.515C120.805 123.064 121.467 124.936 121.854 127.13C122.273 129.325 122.483 131.794 122.483 134.537C122.483 138.475 122.031 141.767 121.128 144.413C120.224 147.028 118.869 149.013 117.061 150.368C115.254 151.724 112.995 152.401 110.284 152.401H95.518ZM101.473 147.028H109.703C111.349 147.028 112.656 146.544 113.624 145.575C114.624 144.607 115.351 143.187 115.802 141.315C116.287 139.443 116.529 137.184 116.529 134.537C116.529 132.085 116.383 130.051 116.093 128.438C115.802 126.824 115.383 125.549 114.834 124.613C114.286 123.677 113.576 123.015 112.704 122.628C111.865 122.241 110.864 122.047 109.703 122.047H101.473V147.028ZM128.234 152.401V116.674H134.188V152.401H128.234ZM138.63 152.401L150.248 116.674H157.801L169.42 152.401H163.174L160.415 143.929H147.489L144.778 152.401H138.63ZM148.893 138.556H158.963L153.928 121.805L148.893 138.556ZM184.362 152.692C183.491 152.692 182.555 152.66 181.555 152.595C180.586 152.563 179.586 152.498 178.553 152.401C177.553 152.272 176.6 152.159 175.697 152.062C174.793 151.933 173.986 151.788 173.276 151.627V146.931C174.18 146.995 175.229 147.06 176.423 147.124C177.649 147.189 178.924 147.237 180.247 147.27C181.571 147.302 182.846 147.318 184.072 147.318C185.363 147.318 186.509 147.205 187.509 146.979C188.51 146.721 189.284 146.285 189.833 145.672C190.382 145.059 190.656 144.188 190.656 143.058V141.364C190.656 140.105 190.301 139.137 189.591 138.459C188.881 137.781 187.832 137.442 186.444 137.442H183.104C179.844 137.442 177.327 136.732 175.552 135.312C173.809 133.892 172.937 131.455 172.937 128.002V126.162C172.937 122.709 173.889 120.224 175.794 118.707C177.73 117.158 180.49 116.383 184.072 116.383C185.298 116.383 186.557 116.448 187.848 116.577C189.171 116.674 190.43 116.803 191.624 116.964C192.818 117.125 193.835 117.303 194.674 117.497V122.192C193.254 122.096 191.624 121.999 189.785 121.902C187.977 121.805 186.299 121.757 184.75 121.757C183.523 121.757 182.442 121.886 181.506 122.144C180.57 122.402 179.86 122.87 179.376 123.548C178.892 124.194 178.65 125.162 178.65 126.453V127.615C178.65 129.131 179.053 130.197 179.86 130.81C180.699 131.423 181.893 131.73 183.443 131.73H187.17C189.268 131.73 190.995 132.117 192.35 132.891C193.706 133.666 194.706 134.731 195.352 136.087C196.03 137.41 196.369 138.927 196.369 140.637V142.913C196.369 145.559 195.852 147.592 194.819 149.013C193.787 150.433 192.366 151.401 190.559 151.917C188.752 152.434 186.686 152.692 184.362 152.692Z" fill="white"/>
<path d="M71.3786 170.546V161.53H75.1044C75.6908 161.53 76.1794 161.636 76.5704 161.848C76.9694 162.051 77.287 162.353 77.5232 162.752C77.7594 163.143 77.9263 163.615 78.0241 164.169C78.1299 164.723 78.1829 165.346 78.1829 166.038C78.1829 167.031 78.0689 167.862 77.8408 168.53C77.6128 169.19 77.2707 169.69 76.8147 170.032C76.3586 170.375 75.7885 170.546 75.1044 170.546H71.3786ZM72.8811 169.19H74.9578C75.3732 169.19 75.703 169.067 75.9473 168.823C76.1998 168.579 76.383 168.22 76.4971 167.748C76.6192 167.276 76.6803 166.706 76.6803 166.038C76.6803 165.419 76.6437 164.906 76.5704 164.499C76.4971 164.091 76.3912 163.77 76.2527 163.534C76.1143 163.297 75.9351 163.13 75.7152 163.033C75.5035 162.935 75.251 162.886 74.9578 162.886H72.8811V169.19ZM85.0823 170.607C84.8868 170.607 84.6669 170.586 84.4226 170.546C84.1864 170.513 83.9584 170.436 83.7385 170.313C83.5186 170.183 83.3394 169.992 83.201 169.739C83.0625 169.487 82.9933 169.141 82.9933 168.701V163.497C82.9933 163.114 83.0503 162.797 83.1643 162.544C83.2784 162.283 83.429 162.08 83.6163 161.933C83.8118 161.787 84.0235 161.685 84.2516 161.628C84.4877 161.563 84.7198 161.53 84.9479 161.53C85.518 161.53 86.031 161.538 86.4871 161.555C86.9432 161.571 87.3585 161.587 87.7331 161.603C88.1159 161.62 88.4702 161.64 88.7959 161.664V162.923H85.3877C85.1108 162.923 84.8909 162.992 84.728 163.13C84.5733 163.269 84.4959 163.485 84.4959 163.778V165.378L88.2462 165.464V166.649L84.4959 166.734V168.286C84.4959 168.53 84.5366 168.717 84.618 168.848C84.7076 168.978 84.8176 169.067 84.9479 169.116C85.0863 169.165 85.2288 169.19 85.3754 169.19H88.7959V170.448C88.4376 170.48 88.0467 170.509 87.6232 170.533C87.1997 170.55 86.7681 170.562 86.3283 170.57C85.8967 170.586 85.4813 170.598 85.0823 170.607ZM102.752 170.607C102.182 170.607 101.714 170.505 101.348 170.301C100.989 170.098 100.704 169.8 100.492 169.409C100.289 169.019 100.142 168.538 100.053 167.968C99.9712 167.398 99.9305 166.75 99.9305 166.026C99.9305 165.284 99.9752 164.629 100.065 164.059C100.163 163.489 100.33 163.012 100.566 162.63C100.802 162.239 101.128 161.945 101.543 161.75C101.966 161.546 102.508 161.445 103.168 161.445C103.542 161.445 103.901 161.461 104.243 161.493C104.585 161.518 104.915 161.559 105.232 161.616C105.55 161.673 105.859 161.738 106.161 161.811V162.972C105.99 162.947 105.757 162.923 105.464 162.898C105.179 162.874 104.862 162.854 104.511 162.837C104.161 162.813 103.799 162.801 103.424 162.801C102.887 162.801 102.475 162.906 102.19 163.118C101.905 163.322 101.71 163.66 101.604 164.132C101.498 164.604 101.445 165.24 101.445 166.038C101.445 166.665 101.474 167.186 101.531 167.601C101.588 168.009 101.681 168.334 101.812 168.579C101.95 168.815 102.133 168.982 102.361 169.08C102.598 169.169 102.883 169.214 103.217 169.214C103.575 169.214 103.921 169.181 104.255 169.116C104.597 169.043 104.882 168.966 105.11 168.884V166.807H103.29V165.635C103.453 165.61 103.648 165.59 103.876 165.574C104.112 165.557 104.357 165.545 104.609 165.537C104.862 165.521 105.11 165.513 105.354 165.513C105.599 165.513 105.819 165.517 106.014 165.525C106.218 165.525 106.401 165.533 106.564 165.549V170.546H105.428L105.22 169.923C104.968 170.069 104.621 170.22 104.182 170.375C103.742 170.529 103.265 170.607 102.752 170.607ZM111.036 170.546L113.968 161.53H115.874L118.806 170.546H117.23L116.534 168.408H113.272L112.588 170.546H111.036ZM113.626 167.052H116.167L114.897 162.825L113.626 167.052ZM123.273 170.546V161.53H126.938C127.272 161.53 127.585 161.571 127.878 161.652C128.18 161.726 128.444 161.864 128.672 162.068C128.908 162.271 129.092 162.556 129.222 162.923C129.36 163.281 129.43 163.749 129.43 164.328C129.43 164.775 129.385 165.15 129.295 165.451C129.206 165.745 129.088 165.985 128.941 166.172C128.794 166.36 128.627 166.506 128.44 166.612C128.261 166.71 128.082 166.791 127.903 166.856L129.637 170.546H128.11L126.547 167.076C126.433 167.076 126.298 167.076 126.144 167.076C125.997 167.076 125.842 167.076 125.679 167.076C125.516 167.068 125.358 167.064 125.203 167.064C125.048 167.056 124.906 167.052 124.775 167.052V170.546H123.273ZM124.775 165.867H126.681C126.86 165.867 127.023 165.846 127.17 165.806C127.316 165.757 127.447 165.675 127.561 165.561C127.675 165.447 127.76 165.293 127.817 165.097C127.882 164.902 127.915 164.649 127.915 164.34C127.915 164.038 127.882 163.794 127.817 163.607C127.76 163.411 127.675 163.265 127.561 163.167C127.447 163.061 127.312 162.988 127.157 162.947C127.011 162.906 126.852 162.886 126.681 162.886H124.775V165.867ZM133.646 170.546L136.577 161.53H138.483L141.415 170.546H139.839L139.143 168.408H135.881L135.197 170.546H133.646ZM136.235 167.052H138.776L137.506 162.825L136.235 167.052ZM145.98 170.546V161.53H147.189L151.294 167.968V161.53H152.808V170.546H151.599L147.494 164.108V170.546H145.98ZM159.702 170.546V162.886H157.112V161.53H163.794V162.886H161.216V170.546H159.702ZM168.193 170.546V161.53H169.695V170.546H168.193ZM174.176 170.546L177.107 161.53H179.013L181.945 170.546H180.369L179.673 168.408H176.411L175.727 170.546H174.176ZM176.765 167.052H179.306L178.036 162.825L176.765 167.052Z" fill="#E4E4E4"/>
<path d="M128.901 79.1183L131.949 88.4617H141.811L133.832 94.2362L136.88 103.58L128.901 97.805L120.923 103.58L123.971 94.2362L115.992 88.4617H125.854L128.901 79.1183Z" fill="white"/>
<path d="M158.084 87.9076L159.912 93.5136H165.829L161.042 96.9783L162.871 102.584L158.084 99.1196L153.297 102.584L155.125 96.9783L150.339 93.5136H156.256L158.084 87.9076Z" fill="white"/>
<path d="M179.802 91.9641L181.173 96.1686H185.611L182.02 98.7672L183.392 102.972L179.802 100.373L176.211 102.972L177.583 98.7672L173.993 96.1686H178.43L179.802 91.9641Z" fill="white"/>
<path d="M78.0016 91.9641L79.3729 96.1686H83.8106L80.2204 98.7672L81.5918 102.972L78.0016 100.373L74.4114 102.972L75.7827 98.7672L72.1925 96.1686H76.6302L78.0016 91.9641Z" fill="white"/>
<path d="M99.7187 87.9076L101.547 93.5136H107.464L102.677 96.9783L104.506 102.584L99.7187 99.1196L94.9318 102.584L96.7602 96.9783L91.9733 93.5136H97.8903L99.7187 87.9076Z" fill="white"/>
<defs>
<linearGradient id="paint0_linear_1_234" x1="128" y1="316.984" x2="128" y2="199.5" gradientUnits="userSpaceOnUse">
<stop stop-color="#A3B43E"/>
<stop offset="1" stop-color="#080C08"/>
</linearGradient>
<linearGradient id="paint1_linear_1_234" x1="0.0380864" y1="224.629" x2="234.21" y2="224.629" gradientUnits="userSpaceOnUse">
<stop stop-color="#A3B43E"/>
<stop offset="1" stop-color="#D7E872"/>
</linearGradient>
</defs>
</svg>

<svg width="257" height="330" fill="none" xmlns="http://www.w3.org/2000/svg"><path d="M57.794 223.14h140.56v92.154c0 6.656-6.994 10.993-12.956 8.033l-53.336-26.481a8.964 8.964 0 0 0-7.976 0L70.75 323.327c-5.962 2.96-12.956-1.377-12.956-8.033V223.14Z" fill="url(#a)"/><path fill-rule="evenodd" clip-rule="evenodd" d="M18.31 103.54a14.117 14.117 0 0 0 3.78-13.223l-4.538-19.36c-1.781-7.6 2.943-15.203 10.546-16.971l14.688-3.417a14.116 14.116 0 0 0 10.447-10.133l3.844-14.506c1.995-7.526 9.706-12.016 17.236-10.035l17.473 4.595a14.115 14.115 0 0 0 13.553-3.651l12.772-12.723c5.508-5.488 14.417-5.488 19.925 0l14.23 14.175a14.116 14.116 0 0 0 13.161 3.749l19.604-4.56c7.585-1.765 15.165 2.945 16.943 10.527l3.423 14.604a14.116 14.116 0 0 0 10.153 10.43l14.578 3.834c7.55 1.986 12.055 9.722 10.055 17.268l-4.567 17.232a14.115 14.115 0 0 0 3.683 13.617l12.658 12.61c5.538 5.517 5.538 14.485 0 20.002l-14.117 14.064a14.116 14.116 0 0 0-3.781 13.222l4.538 19.361c1.781 7.6-2.943 15.203-10.545 16.971l-14.691 3.418a14.116 14.116 0 0 0-10.447 10.133l-3.844 14.504c-1.994 7.526-9.706 12.016-17.236 10.036l-17.471-4.595a14.116 14.116 0 0 0-13.554 3.651l-12.771 12.723c-5.508 5.488-14.417 5.488-19.925 0l-14.23-14.175a14.118 14.118 0 0 0-13.161-3.749l-19.604 4.561c-7.584 1.764-15.165-2.947-16.942-10.528l-3.423-14.603A14.119 14.119 0 0 0 40.6 202.167l-14.58-3.834c-7.55-1.986-12.055-9.723-10.056-17.269l4.567-17.233a14.117 14.117 0 0 0-3.682-13.617L4.192 137.606c-5.538-5.517-5.538-14.485 0-20.002l14.117-14.064Zm109.948 117.412c51.65 0 93.52-41.712 93.52-93.166 0-51.454-41.87-93.165-93.52-93.165s-93.52 41.711-93.52 93.165c0 51.454 41.87 93.166 93.52 93.166Z" fill="url(#b)"/><path d="m59.087 152.401 11.28-29.773H54.149v-5.954h22.27l1.645 2.662-12.248 33.065h-6.729Zm36.431 0v-35.727h14.766c2.323 0 4.26.419 5.809 1.258 1.581.807 2.84 2.001 3.776 3.583.936 1.549 1.598 3.421 1.985 5.615.419 2.195.629 4.664.629 7.407 0 3.938-.452 7.23-1.355 9.876-.904 2.615-2.259 4.6-4.067 5.955-1.807 1.356-4.066 2.033-6.777 2.033H95.518Zm5.955-5.373h8.23c1.646 0 2.953-.484 3.921-1.453 1-.968 1.727-2.388 2.178-4.26.485-1.872.727-4.131.727-6.778 0-2.452-.146-4.486-.436-6.099-.291-1.614-.71-2.889-1.259-3.825-.548-.936-1.258-1.598-2.13-1.985-.839-.387-1.84-.581-3.001-.581h-8.23v24.981Zm26.761 5.373v-35.727h5.954v35.727h-5.954Zm10.396 0 11.618-35.727h7.553l11.619 35.727h-6.246l-2.759-8.472h-12.926l-2.711 8.472h-6.148Zm10.263-13.845h10.07l-5.035-16.751-5.035 16.751Zm35.469 14.136c-.871 0-1.807-.032-2.807-.097a49.662 49.662 0 0 1-3.002-.194c-1-.129-1.953-.242-2.856-.339a30.564 30.564 0 0 1-2.421-.435v-4.696c.904.064 1.953.129 3.147.193 1.226.065 2.501.113 3.824.146 1.324.032 2.599.048 3.825.048 1.291 0 2.437-.113 3.437-.339 1.001-.258 1.775-.694 2.324-1.307.549-.613.823-1.484.823-2.614v-1.694c0-1.259-.355-2.227-1.065-2.905-.71-.678-1.759-1.017-3.147-1.017h-3.34c-3.26 0-5.777-.71-7.552-2.13-1.743-1.42-2.615-3.857-2.615-7.31v-1.84c0-3.453.952-5.938 2.857-7.455 1.936-1.549 4.696-2.324 8.278-2.324 1.226 0 2.485.065 3.776.194 1.323.097 2.582.226 3.776.387s2.211.339 3.05.533v4.695c-1.42-.096-3.05-.193-4.889-.29a94.365 94.365 0 0 0-5.035-.145c-1.227 0-2.308.129-3.244.387-.936.258-1.646.726-2.13 1.404-.484.646-.726 1.614-.726 2.905v1.162c0 1.516.403 2.582 1.21 3.195.839.613 2.033.92 3.583.92h3.727c2.098 0 3.825.387 5.18 1.161 1.356.775 2.356 1.84 3.002 3.196.678 1.323 1.017 2.84 1.017 4.55v2.276c0 2.646-.517 4.679-1.55 6.1-1.032 1.42-2.453 2.388-4.26 2.904-1.807.517-3.873.775-6.197.775Z" fill="#fff"/><path d="M71.379 170.546v-9.016h3.725c.587 0 1.075.106 1.466.318.4.203.717.505.953.904.236.391.403.863.501 1.417.106.554.159 1.177.159 1.869 0 .993-.114 1.824-.342 2.492-.228.66-.57 1.16-1.026 1.502-.456.343-1.026.514-1.71.514h-3.726Zm1.502-1.356h2.077c.415 0 .745-.123.99-.367.252-.244.435-.603.55-1.075.121-.472.182-1.042.182-1.71 0-.619-.036-1.132-.11-1.539-.073-.408-.179-.729-.317-.965a1.167 1.167 0 0 0-.538-.501 1.79 1.79 0 0 0-.757-.147H72.88v6.304Zm12.201 1.417c-.195 0-.415-.021-.66-.061a1.941 1.941 0 0 1-.683-.233c-.22-.13-.4-.321-.538-.574-.138-.252-.208-.598-.208-1.038v-5.204c0-.383.057-.7.171-.953a1.54 1.54 0 0 1 .452-.611c.196-.146.407-.248.636-.305.236-.065.468-.098.696-.098.57 0 1.083.008 1.54.025.455.016.87.032 1.245.048.383.017.737.037 1.063.061v1.259h-3.408c-.277 0-.497.069-.66.207-.155.139-.232.355-.232.648v1.6l3.75.086v1.185l-3.75.085v1.552c0 .244.04.431.122.562.09.13.2.219.33.268.138.049.28.074.427.074h3.42v1.258c-.357.032-.748.061-1.172.085-.423.017-.855.029-1.295.037-.431.016-.847.028-1.246.037Zm17.67 0c-.57 0-1.038-.102-1.404-.306a2.2 2.2 0 0 1-.856-.892c-.203-.39-.35-.871-.439-1.441a13.79 13.79 0 0 1-.123-1.942c0-.742.045-1.397.135-1.967.098-.57.265-1.047.501-1.429.236-.391.562-.685.977-.88.423-.204.965-.305 1.625-.305.374 0 .733.016 1.075.048.342.025.672.066.989.123.318.057.627.122.929.195v1.161a12.502 12.502 0 0 0-.697-.074 27.067 27.067 0 0 0-.953-.061 15.89 15.89 0 0 0-1.087-.036c-.537 0-.949.105-1.234.317-.285.204-.48.542-.586 1.014-.106.472-.159 1.108-.159 1.906 0 .627.029 1.148.086 1.563.057.408.15.733.281.978.138.236.321.403.549.501.237.089.522.134.856.134.358 0 .704-.033 1.038-.098a6.74 6.74 0 0 0 .855-.232v-2.077h-1.82v-1.172c.163-.025.358-.045.586-.061.236-.017.481-.029.733-.037.253-.016.501-.024.745-.024.245 0 .465.004.66.012.204 0 .387.008.55.024v4.997h-1.136l-.208-.623a6.36 6.36 0 0 1-1.038.452c-.44.154-.917.232-1.43.232Zm8.284-.061 2.932-9.016h1.906l2.932 9.016h-1.576l-.696-2.138h-3.262l-.684 2.138h-1.552Zm2.59-3.494h2.541l-1.27-4.227-1.271 4.227Zm9.647 3.494v-9.016h3.665c.334 0 .647.041.94.122.302.074.566.212.794.416.236.203.42.488.55.855.138.358.208.826.208 1.405 0 .447-.045.822-.135 1.123a2.177 2.177 0 0 1-.354.721 1.7 1.7 0 0 1-.501.44 3.864 3.864 0 0 1-.537.244l1.734 3.69h-1.527l-1.563-3.47H125.679a9.694 9.694 0 0 0-.476-.012 8.33 8.33 0 0 0-.428-.012v3.494h-1.502Zm1.502-4.679h1.906c.179 0 .342-.021.489-.061a.998.998 0 0 0 .391-.245c.114-.114.199-.268.256-.464.065-.195.098-.448.098-.757 0-.302-.033-.546-.098-.733a.89.89 0 0 0-.256-.44.934.934 0 0 0-.404-.22 1.757 1.757 0 0 0-.476-.061h-1.906v2.981Zm8.871 4.679 2.931-9.016h1.906l2.932 9.016h-1.576l-.696-2.138h-3.262l-.684 2.138h-1.551Zm2.589-3.494h2.541l-1.27-4.227-1.271 4.227Zm9.745 3.494v-9.016h1.209l4.105 6.438v-6.438h1.514v9.016h-1.209l-4.105-6.438v6.438h-1.514Zm13.722 0v-7.66h-2.59v-1.356h6.682v1.356h-2.578v7.66h-1.514Zm8.491 0v-9.016h1.502v9.016h-1.502Zm5.983 0 2.931-9.016h1.906l2.932 9.016h-1.576l-.696-2.138h-3.262l-.684 2.138h-1.551Zm2.589-3.494h2.541l-1.27-4.227-1.271 4.227Z" fill="#E4E4E4"/><path d="m128.901 79.118 3.048 9.344h9.862l-7.979 5.774 3.048 9.344-7.979-5.775-7.978 5.775 3.048-9.344-7.979-5.774h9.862l3.047-9.344ZM158.084 87.908l1.828 5.606h5.917l-4.787 3.464 1.829 5.606-4.787-3.464-4.787 3.464 1.828-5.606-4.786-3.464h5.917l1.828-5.606ZM179.802 91.964l1.371 4.205h4.438l-3.591 2.598 1.372 4.205-3.59-2.599-3.591 2.599 1.372-4.205-3.59-2.598h4.437l1.372-4.205ZM78.002 91.964l1.37 4.205h4.439l-3.59 2.598 1.37 4.205-3.59-2.599-3.59 2.599 1.372-4.205-3.59-2.598h4.437l1.372-4.205ZM99.719 87.908l1.828 5.606h5.917l-4.787 3.464 1.829 5.606-4.787-3.464-4.787 3.464 1.828-5.606-4.787-3.464h5.917l1.829-5.606Z" fill="#fff"/><defs><linearGradient id="a" x1="128" y1="316.984" x2="128" y2="199.5" gradientUnits="userSpaceOnUse"><stop stop-color="#A3B43E"/><stop offset="1" stop-color="#080C08"/></linearGradient><linearGradient id="b" x1=".038" y1="224.629" x2="234.21" y2="224.629" gradientUnits="userSpaceOnUse"><stop stop-color="#A3B43E"/><stop offset="1" stop-color="#D7E872"/></linearGradient></defs></svg>
